flaticon/coffee-shop/frappe-2.svg

<svg xmlns="http://www.w3.org/2000/svg" width="32" height="32" viewBox="0 0 24 24">
    <path d="M 15.640625 18.480469 C 17.199219 14.199219 18 9.761719 18 5.238281 L 18 5.199219 C 18 4.960938 17.839844 4.800781 17.601562 4.800781 L 17.15625 4.800781 C 16.992188 4.015625 16.347656 3.378906 15.558594 3.238281 C 15.398438 2.441406 14.761719 1.800781 13.960938 1.640625 C 13.800781 0.71875 12.960938 0 12 0 C 11.039062 0 10.199219 0.71875 10.039062 1.640625 C 9.238281 1.800781 8.601562 2.441406 8.441406 3.238281 C 7.652344 3.378906 7.007812 4.015625 6.84375 4.800781 L 6.398438 4.800781 C 6.160156 4.800781 6 4.960938 6 5.199219 L 6 5.238281 C 6 9.761719 6.800781 14.238281 8.359375 18.480469 L 8.800781 19.679688 L 8.800781 20.359375 C 8.800781 20.960938 8.441406 21.558594 7.921875 21.878906 L 6.839844 22.480469 C 6.519531 22.640625 6.359375 23.039062 6.441406 23.398438 C 6.519531 23.761719 6.839844 24 7.238281 24 L 16.761719 24 C 17.160156 24 17.480469 23.761719 17.558594 23.398438 C 17.640625 23.039062 17.480469 22.679688 17.160156 22.480469 L 16.082031 21.878906 C 15.558594 21.558594 15.199219 21 15.199219 20.359375 L 15.199219 19.679688 Z M 8.800781 4 C 9.039062 4 9.199219 3.839844 9.199219 3.601562 C 9.199219 2.921875 9.71875 2.398438 10.441406 2.398438 C 10.679688 2.398438 10.839844 2.238281 10.839844 2 C 10.839844 1.320312 11.359375 0.800781 12.039062 0.800781 C 12.71875 0.800781 13.238281 1.320312 13.238281 2 C 13.238281 2.238281 13.398438 2.398438 13.640625 2.398438 C 14.320312 2.398438 14.839844 2.921875 14.839844 3.601562 C 14.839844 3.839844 15 4 15.238281 4 C 15.761719 4 16.199219 4.320312 16.359375 4.800781 L 7.679688 4.800781 C 7.839844 4.320312 8.28125 4 8.800781 4 Z M 15.640625 22.558594 L 16.71875 23.199219 L 7.199219 23.199219 L 7.199219 23.160156 L 8.28125 22.558594 C 9.121094 22.121094 9.601562 21.28125 9.601562 20.359375 L 9.601562 19.601562 C 9.601562 19.558594 9.601562 19.519531 9.601562 19.480469 L 9.121094 18.199219 C 7.601562 14.160156 6.839844 9.921875 6.800781 5.601562 L 17.199219 5.601562 C 17.160156 9.921875 16.398438 14.160156 14.839844 18.199219 L 14.359375 19.480469 C 14.320312 19.519531 14.320312 19.558594 14.320312 19.601562 L 14.320312 20.359375 C 14.320312 21.28125 14.839844 22.121094 15.640625 22.558594 Z M 15.640625 22.558594"/>
    <path d="M 16.238281 6.519531 C 16.160156 6.441406 16.078125 6.398438 15.960938 6.398438 L 8.039062 6.398438 C 7.921875 6.398438 7.800781 6.441406 7.761719 6.519531 C 7.679688 6.601562 7.640625 6.679688 7.640625 6.800781 C 7.800781 10.601562 8.558594 14.359375 9.878906 17.921875 L 10.398438 19.398438 L 10.398438 20.398438 C 10.398438 20.480469 10.441406 20.601562 10.519531 20.679688 C 10.601562 20.761719 10.679688 20.800781 10.800781 20.800781 L 13.199219 20.800781 C 13.320312 20.800781 13.398438 20.761719 13.480469 20.679688 C 13.558594 20.601562 13.601562 20.519531 13.601562 20.398438 L 13.601562 19.398438 L 14.121094 17.921875 C 15.441406 14.320312 16.199219 10.601562 16.359375 6.800781 C 16.359375 6.71875 16.320312 6.601562 16.238281 6.519531 Z M 13.398438 17.679688 L 12.839844 19.199219 C 12.800781 19.238281 12.800781 19.28125 12.800781 19.320312 L 12.800781 20 L 11.199219 20 L 11.199219 19.320312 C 11.199219 19.28125 11.160156 19.238281 11.160156 19.199219 L 10.601562 17.679688 C 9.359375 14.320312 8.640625 10.800781 8.441406 7.238281 L 15.558594 7.238281 C 15.359375 10.800781 14.640625 14.320312 13.398438 17.679688 Z M 13.398438 17.679688"/>
</svg>

<svg xmlns="http://www.w3.org/2000/svg" width="32" height="32" viewBox="0 0 24 24">
    <path d="M15.64 18.48C17.2 14.2 18 9.762 18 5.238V5.2c0-.238-.16-.398-.398-.398h-.446a2.022 2.022 0 0 0-1.597-1.563 2.053 2.053 0 0 0-1.598-1.597C13.8.719 12.96 0 12 0c-.96 0-1.8.719-1.96 1.64-.802.16-1.438.801-1.599 1.598-.789.14-1.433.778-1.597 1.563h-.446C6.16 4.8 6 4.96 6 5.199v.04c0 4.523.8 9 2.36 13.241l.44 1.2v.68c0 .6-.359 1.199-.878 1.519l-1.082.601c-.32.16-.48.56-.399.918.079.364.399.602.797.602h9.524c.398 0 .718-.238.797-.602a.852.852 0 0 0-.399-.918l-1.078-.601c-.523-.32-.883-.879-.883-1.52v-.68zM8.8 4c.24 0 .4-.16.4-.398 0-.68.519-1.204 1.241-1.204.239 0 .399-.16.399-.398 0-.68.52-1.2 1.2-1.2.679 0 1.198.52 1.198 1.2 0 .238.16.398.403.398.68 0 1.199.524 1.199 1.204 0 .238.16.398.398.398.524 0 .961.32 1.121.8H7.68c.16-.48.602-.8 1.122-.8zm6.84 18.559l1.079.64h-9.52v-.039l1.082-.601a2.444 2.444 0 0 0 1.32-2.2v-.757-.122l-.48-1.28c-1.52-4.04-2.281-8.278-2.32-12.598h10.398c-.039 4.32-.8 8.558-2.36 12.597l-.48 1.281c-.039.04-.039.079-.039.122v.757c0 .922.52 1.762 1.32 2.2zm0 0"/>
    <path d="M16.238 6.52a.366.366 0 0 0-.277-.122H8.039c-.117 0-.238.043-.277.122a.361.361 0 0 0-.121.28c.16 3.802.918 7.56 2.238 11.122l.52 1.476v1c0 .082.042.204.12.282.083.082.16.12.282.12h2.398c.121 0 .2-.038.281-.12a.369.369 0 0 0 .122-.282v-1l.52-1.476A36.676 36.676 0 0 0 16.358 6.8c0-.082-.039-.2-.12-.281zm-2.84 11.16l-.558 1.52c-.04.038-.04.081-.04.12V20h-1.6v-.68c0-.039-.04-.082-.04-.12l-.558-1.52a35.867 35.867 0 0 1-2.16-10.442h7.117a35.867 35.867 0 0 1-2.16 10.442zm0 0"/>
</svg>
